X: 6179
T: Car Y Phoosee
R: jig
M: 6/8
K: Dmajor
dff f2e|dff f2e|dff fga|gee e2d|
cee e2d|cee e2d|cee efg|1 fdd d2c:|2 fdd d2 f/g/||
agf gfe|fdd d2f/g/|agf fga|bee e2f/g/|
agf gfe|fed e2A|A2A BAG|Fdd d3|
cee e2d|cee e2d|cee efg|fdd d3|
cee e2d|cee e2d|cee efg|fdd d3||

